X:1
T:Title
%%score { 1 | ( 2 3 ) }
L:1/8
Q:1/4=100
M:4/4
K:F
V:1 treble nm="Grand Piano"
V:2 bass 
V:3 bass 
V:1
 A2 B>A A2 FC | D4 [B,DF]2 z2 | [A,C]2 [A,CF]2 [CFA]2 [CFc]2 | [CEG]6 z2 | A2 B>A A2 FC | %5
w: J.~H.~Hall * * * * *|||||
 D4 [DF]2 z2 | C2 F2 F2 G2 | [A,CF]6 z2 | c2 d>c c2 A2 | A2 B>A A2 F2 | c2 d>c cA[B,FG]F | %11
w: ||||||
 [FA]4 [EG]2 z2 | A2 B>A A2 FC | D4 [DF]2 z2 | C2 F2 F2 G2 |[M:8/4] [A,CF]8 z8 |] %16
w: |||||
V:2
 [F,CF]2 [F,DF]>[F,CF] [F,CF]2 [F,A,C][F,A,] | [B,,F,B,]4 B,,2 z2 | F,2 F,2 F,2 A,,2 | C,6 z2 | %4
 [F,CF]2 [F,DF]>[F,CF] [F,CF]2 [F,A,C][F,A,] | [B,,F,B,]4 [B,,B,]2 z2 | %6
 [F,A,]2 [A,C]2 [C,A,C]2 [C,B,C]2 | [F,,F,]6 z2 | [F,A,F]2 [F,B,F]>[F,A,F] F2- [F,F]2 | %9
 [F,CF]2 [F,DF]>[F,CF] [CF]2 [A,C]2 | [F,A,F]2 [F,B,F]>[F,A,F] [F,F]-[F,CF] z A, | %11
 [C,C]4 [C,C]2 z2 | [F,CF]2 [F,DF]>[F,CF] [F,CF]2 [F,A,C][F,A,] | [B,,F,B,]4 [B,,B,]2 z2 | %14
 C,2- [C,A,C]2 [C,A,C]2 [C,B,C]2 |[M:8/4] [F,,F,]8 z8 |] %16
V:3
 x8 | x8 | x8 | x8 | x8 | x8 | C,4 z4 | x8 | z4 [F,A,]2 z2 | z4 F,4 | z4 .A,2 F,2 | x8 | x8 | x8 | %14
 [F,A,]2 z2 z4 |[M:8/4] x16 |] %16

